**kern	**kern	**dynam
*part1	*part1	*part1
*staff2	*staff1	*
*I"Piano	*	*
*clefF4	*clefG2	*
*k[b-e-a-]	*k[b-e-a-]	*
=1	=1	=1
4C] 4G-X] 4An]	4e-] 4g-X] 4an]	.
4C	4e- 4g- 4a	p
4BB-	4e- 4g- 4b-	.
=	=	=
2.AAn	2.e- 2.f 2.cc	.
=	=	=
*	*^	*
!	!LO:TX:b:i:t=cresc.	!	!
2AAA-X 2AA-X	2f 2cc	4e-	.
.	.	4d	.
4AAA- 4AA-	4f#X 4cc	4c	.
*	*v	*v	*
=	=	=
4..GGG 4..GG	4..d 4..g 4..bn	f >
16GGG 16GG	16d 16g 16b	.
8GGG 8GG	8d 8g 8b	.
8r	8r	]
=	=	=
4..GGG 4..GG	4..e- 4..g 4..cc	mf mp
16GGG 16GG	16e- 16g 16cc	.
8GGG 8GG	8e- 8g 8cc	.
8r	8r	.
=	=	=
!	!LO:TX:b:i:t=dim.	!
4..GGG 4..GG	4..Bn 4..d 4..g	.
16GGG 16GG	16B 16d 16g	.
8CC 8C	8c 8e- 8g	.
8r	8r	.
=	=	=
!	!	!LO:DY:a
2.GGG; 2.GG	2.Bn; 2.d 2.g	p
=||	=||	=||
*-	*-	*-
!!!system-decoration: {(s1,s2)}
